; generated by Slic3r 1.3.0 on 2024-05-06 at 14:29:10

; external perimeters extrusion width = 0.55mm (4.37mm^3/s)
; perimeters extrusion width = 0.70mm (11.44mm^3/s)
; infill extrusion width = 0.62mm (13.45mm^3/s)
; solid infill extrusion width = 0.70mm (3.81mm^3/s)
; top infill extrusion width = 0.70mm (2.86mm^3/s)

M107
M104 S200 ; set temperature
G28 ; home all axes
G1 Z5 F5000 ; lift nozzle

; Filament gcode

M109 S200 ; set temperature and wait for it to be reached
G21 ; set units to millimeters
G90 ; use absolute coordinates
M82 ; use absolute distances for extrusion
G92 E0
G1 Z0.350 F7800.000
G1 E-2.00000 F2400.00000
G92 E0
G1 X93.915 Y94.753 F7800.000
G1 E2.00000 F2400.00000
G1 F613.253
G1 X95.668 Y93.274 E2.07096
G1 X97.820 Y92.481 E2.14192
G1 X99.000 Y92.375 E2.17858
G1 X101.000 Y92.375 E2.24046
G1 X103.259 Y92.772 E2.31142
G1 X105.247 Y93.915 E2.38238
G1 X106.726 Y95.668 E2.45335
G1 X107.519 Y97.820 E2.52431
G1 X107.625 Y99.000 E2.56096
G1 X107.625 Y101.000 E2.62284
G1 X107.228 Y103.259 E2.69380
G1 X106.085 Y105.247 E2.76477
G1 X104.332 Y106.726 E2.83573
G1 X102.180 Y107.519 E2.90669
G1 X101.000 Y107.625 E2.94334
G1 X99.000 Y107.625 E3.00522
G1 X96.741 Y107.228 E3.07619
G1 X94.753 Y106.085 E3.14715
G1 X93.274 Y104.332 E3.21811
G1 X92.481 Y102.180 E3.28907
G1 X92.375 Y101.000 E3.32572
G1 X92.375 Y99.000 E3.38761
G1 X92.772 Y96.741 E3.45857
G1 X93.878 Y94.818 E3.52721
G1 E1.52721 F2400.00000
G92 E0
G1 X100.650 Y100.650 F7800.000
G1 E2.00000 F2400.00000
G1 F1800
G1 X99.350 Y100.650 E2.04022
G1 X99.350 Y99.350 E2.08045
G1 X100.650 Y99.350 E2.12067
G1 X100.650 Y100.575 E2.15857
G1 X100.167 Y100.521 F7800.000
G1 Z0.650 F7800.000
G1 X100.725 Y100.725 F7800.000
G1 F600
G1 X99.275 Y100.725 E2.18846
G1 X99.275 Y99.275 E2.21834
G1 X100.725 Y99.275 E2.24823
G1 X100.725 Y100.650 E2.27657
G1 X100.242 Y100.596 F7800.000
G1 Z0.950 F7800.000
G1 X100.725 Y100.725 F7800.000
G1 F600
G1 X99.275 Y100.725 E2.30645
G1 X99.275 Y99.275 E2.33634
G1 X100.725 Y99.275 E2.36622
G1 X100.725 Y100.650 E2.39456
G1 X100.242 Y100.596 F7800.000
M106 S255
G1 Z1.250 F7800.000
G1 X100.725 Y100.725 F7800.000
G1 F600
G1 X99.275 Y100.725 E2.42445
G1 X99.275 Y99.275 E2.45433
G1 X100.725 Y99.275 E2.48422
G1 X100.725 Y100.650 E2.51256
G1 X100.242 Y100.596 F7800.000
G1 Z1.550 F7800.000
G1 X100.725 Y100.725 F7800.000
G1 F600
G1 X99.275 Y100.725 E2.54244
G1 X99.275 Y99.275 E2.57233
G1 X100.725 Y99.275 E2.60221
G1 X100.725 Y100.650 E2.63055
G1 X100.242 Y100.596 F7800.000
G1 Z1.850 F7800.000
G1 X100.725 Y100.725 F7800.000
G1 F600
G1 X99.275 Y100.725 E2.66044
G1 X99.275 Y99.275 E2.69032
G1 X100.725 Y99.275 E2.72021
G1 X100.725 Y100.650 E2.74855
G1 X100.242 Y100.596 F7800.000
G1 Z2.150 F7800.000
G1 X100.725 Y100.725 F7800.000
G1 F600
G1 X99.275 Y100.725 E2.77843
G1 X99.275 Y99.275 E2.80832
G1 X100.725 Y99.275 E2.83820
G1 X100.725 Y100.650 E2.86654
G1 X100.242 Y100.596 F7800.000
G1 E0.86654 F2400.00000
G92 E0
M107
; Filament-specific end gcode 
;END gcode for filament

M104 S0 ; turn off temperature
G28 X0  ; home X axis
M84     ; disable motors

M140 S0 ; set bed temperature
; filament used = 2.4mm (0.0cm3)
; total filament cost = 0.0

; avoid_crossing_perimeters = 0
; bed_shape = 0x0,200x0,200x200,0x200
; bed_temperature = 0
; before_layer_gcode = 
; between_objects_gcode = 
; bridge_acceleration = 0
; bridge_fan_speed = 100
; brim_connections_width = 0
; brim_width = 0
; complete_objects = 0
; cooling = 1
; default_acceleration = 0
; disable_fan_first_layers = 3
; duplicate_distance = 6
; end_filament_gcode = "; Filament-specific end gcode \n;END gcode for filament\n"
; end_gcode = M104 S0 ; turn off temperature\nG28 X0  ; home X axis\nM84     ; disable motors\n
; extruder_clearance_height = 20
; extruder_clearance_radius = 20
; extruder_offset = 0x0
; extrusion_axis = E
; extrusion_multiplier = 1
; fan_always_on = 0
; fan_below_layer_time = 60
; filament_colour = #FFFFFF
; filament_cost = 0
; filament_density = 0
; filament_diameter = 3
; filament_max_volumetric_speed = 0
; filament_notes = ""
; first_layer_acceleration = 0
; first_layer_bed_temperature = 0
; first_layer_extrusion_width = 200%
; first_layer_speed = 30
; first_layer_temperature = 200
; gcode_arcs = 0
; gcode_comments = 0
; gcode_flavor = reprap
; has_heatbed = 1
; infill_acceleration = 0
; infill_first = 0
; interior_brim_width = 0
; layer_gcode = 
; max_fan_speed = 100
; max_layer_height = 0.3
; max_print_speed = 80
; max_volumetric_speed = 0
; min_fan_speed = 35
; min_layer_height = 0.15
; min_print_speed = 10
; min_skirt_length = 0
; notes = 
; nozzle_diameter = 0.5
; only_retract_when_crossing_perimeters = 1
; ooze_prevention = 0
; output_filename_format = [input_filename_base].gcode
; perimeter_acceleration = 0
; post_process = 
; pressure_advance = 0
; printer_notes = 
; resolution = 0
; retract_before_travel = 2
; retract_layer_change = 0
; retract_length = 2
; retract_length_toolchange = 10
; retract_lift = 0
; retract_lift_above = 0
; retract_lift_below = 0
; retract_restart_extra = 0
; retract_restart_extra_toolchange = 0
; retract_speed = 40
; skirt_distance = 6
; skirt_height = 1
; skirts = 1
; slowdown_below_layer_time = 5
; spiral_vase = 0
; standby_temperature_delta = -5
; start_filament_gcode = "; Filament gcode\n"
; start_gcode = G28 ; home all axes\nG1 Z5 F5000 ; lift nozzle\n
; temperature = 200
; threads = 4
; toolchange_gcode = 
; travel_speed = 130
; use_firmware_retraction = 0
; use_relative_e_distances = 0
; use_set_and_wait_bed = 0
; use_set_and_wait_extruder = 0
; use_volumetric_e = 0
; vibration_limit = 0
; wipe = 0
; z_offset = 0
; z_steps_per_mm = 0
; adaptive_slicing = 0
; adaptive_slicing_quality = 75%
; dont_support_bridges = 1
; extrusion_width = 0
; first_layer_height = 0.35
; infill_only_where_needed = 0
; interface_shells = 0
; layer_height = 0.3
; match_horizontal_surfaces = 0
; raft_layers = 0
; regions_overlap = 0
; seam_position = aligned
; sequential_print_priority = 0
; support_material = 0
; support_material_angle = 0
; support_material_buildplate_only = 0
; support_material_contact_distance = 0.2
; support_material_enforce_layers = 0
; support_material_extruder = 1
; support_material_extrusion_width = 0
; support_material_interface_extruder = 1
; support_material_interface_extrusion_width = 0
; support_material_interface_layers = 3
; support_material_interface_spacing = 0
; support_material_interface_speed = 100%
; support_material_max_layers = 0
; support_material_pattern = pillars
; support_material_spacing = 2.5
; support_material_speed = 60
; support_material_threshold = 60%
; xy_size_compensation = 0
; bottom_infill_pattern = rectilinear
; bottom_solid_layers = 3
; bridge_flow_ratio = 1
; bridge_speed = 60
; external_perimeter_extrusion_width = 0
; external_perimeter_speed = 50%
; external_perimeters_first = 0
; extra_perimeters = 1
; fill_angle = 45
; fill_density = 20%
; fill_gaps = 1
; fill_pattern = stars
; gap_fill_speed = 20
; infill_every_layers = 1
; infill_extruder = 1
; infill_extrusion_width = 0
; infill_overlap = 55%
; infill_speed = 80
; overhangs = 1
; perimeter_extruder = 1
; perimeter_extrusion_width = 0
; perimeter_speed = 60
; perimeters = 3
; small_perimeter_speed = 15
; solid_infill_below_area = 70
; solid_infill_every_layers = 0
; solid_infill_extruder = 1
; solid_infill_extrusion_width = 0
; solid_infill_speed = 20
; thin_walls = 1
; top_infill_extrusion_width = 0
; top_infill_pattern = rectilinear
; top_solid_infill_speed = 15
; top_solid_layers = 3
